packages/foundations/assets/icons/functional/images/human/toys_20.svg

<svg width="20" height="20" viewBox="0 0 20 20" fill="none" xmlns="http://www.w3.org/2000/svg">
<g clip-path="url(#clip0_185_1220)">
<path fill-rule="evenodd" clip-rule="evenodd" d="M14.0003 2C16.2095 2 18.0003 3.79086 18.0003 6C18.0003 6.98047 17.7022 7.88844 16.8893 8.765C16.952 9.08995 16.989 9.50162 17.0003 10C17.0003 12.0129 16.1447 13.8903 14.6765 15.2091C14.2656 15.5781 13.6333 15.5442 13.2643 15.1333C12.8952 14.7225 12.9291 14.0902 13.34 13.7212C14.3903 12.7778 15.0003 11.4392 15.0003 10C15.0003 9.63661 14.9691 9.07637 14.639 8.01675C14.8079 7.89932 14.9916 7.76299 15.1902 7.60776C15.6968 7.23191 16.0003 6.64215 16.0003 6C16.0003 4.89543 15.1047 4.01948 14.0003 4C13.2129 3.98611 12.5082 4.43905 11.8861 5.35881C11.155 5.1196 10.5265 5 10.0003 5C9.21112 5 8.82444 5.14208 8.18436 5.35881C7.58138 4.35268 6.77976 4 6.12532 4C4.95172 4 4.00032 4.9514 4.00032 6.125C4.00032 6.7199 4.24525 7.27255 4.66609 7.66888C4.91781 7.87847 5.12804 8.0495 5.29678 8.18197C5.06868 9.042 4.97021 9.65978 5.00137 10.0353C5.16434 10.012 5.33093 10 5.50032 10C6.5998 10 7.58087 10.507 8.22252 11.2999C8.34037 11.2516 8.47499 11.2339 8.61786 11.2584L8.82444 11.3118C9.09782 11.3741 9.22169 11.2835 9.24584 11.0811L9.25792 10.8802C9.36773 10.0399 10.6329 10.0399 10.7427 10.8802L10.755 11.0821C10.7768 11.2622 10.8833 11.3424 11.0588 11.3424C11.1035 11.3424 11.1943 11.3178 11.3312 11.2685C12.0455 11.092 12.5807 11.9933 12.0243 12.5366C11.5075 13.0413 10.999 13.1093 10.4173 12.908C10.2521 12.8445 10.1131 12.7918 10.0003 12.75C9.53195 12.9629 9.13078 13.0135 8.96542 13.013C9.03733 13.4598 9.00032 13.8534 8.86997 14.4496L10.0096 15.0821C10.1634 15.0289 10.3285 15 10.5003 15C11.3288 15 12.0003 15.6716 12.0003 16.5C12.0003 17.3284 11.3288 18 10.5003 18C9.7862 18 9.18863 17.501 9.03733 16.8326L7.79541 16.1425C7.18096 16.6766 6.3784 17 5.50032 17C3.56733 17 2.00032 15.433 2.00032 13.5C2.00032 12.511 2.41051 11.6179 3.07003 10.9813C3.02334 10.6589 3.00032 10.3308 3.00032 10C3.00032 9.65846 3.0219 9.28798 3.08632 8.911C2.46953 8.25024 1.9797 7.18891 2.00032 6.125C2.00032 3.84683 3.84715 2 6.12532 2C7.15566 2 8.08155 2.34937 8.91232 3.085C9.37823 3.02681 9.62061 3 10.0003 3C10.38 3 10.6974 3.02861 11.2343 3.11C11.8791 2.4317 13.0334 2 14.0003 2ZM7.50032 7.5C8.05261 7.5 8.50032 7.94772 8.50032 8.5C8.50032 9.05228 8.05261 9.5 7.50032 9.5C6.94804 9.5 6.50032 9.05228 6.50032 8.5C6.50032 7.94772 6.94804 7.5 7.50032 7.5ZM12.5003 7.5C13.0526 7.5 13.5003 7.94772 13.5003 8.5C13.5003 9.05228 13.0526 9.5 12.5003 9.5C11.948 9.5 11.5003 9.05228 11.5003 8.5C11.5003 7.94772 11.948 7.5 12.5003 7.5ZM5.50032 12C4.6719 12 4.00032 12.6716 4.00032 13.5C4.00032 14.3284 4.6719 15 5.50032 15C6.32875 15 7.00032 14.3284 7.00032 13.5C7.00032 12.6716 6.32875 12 5.50032 12Z" fill="#1A1C1F"/>
</g>
<defs>
<clipPath id="clip0_185_1220">
<rect width="20" height="20" fill="white"/>
</clipPath>
</defs>
</svg>

<svg xmlns="http://www.w3.org/2000/svg" width="20" height="20" fill="none"><g clip-path="url(#a)"><path fill="#1A1C1F" fill-rule="evenodd" d="M14 2a4 4 0 0 1 4 4c0 .98-.298 1.888-1.11 2.765q.093.488.11 1.235c0 2.013-.855 3.89-2.323 5.21a1 1 0 0 1-1.337-1.489A4.98 4.98 0 0 0 15 10c0-.363-.03-.924-.361-1.983q.254-.176.551-.41c.507-.375.81-.965.81-1.607 0-1.105-.895-1.98-2-2q-1.18-.021-2.114 1.359Q10.79 4.999 10 5c-.789 0-1.176.142-1.816.359C7.581 4.353 6.78 4 6.125 4a2.125 2.125 0 0 0-1.459 3.669q.378.314.63.513-.341 1.29-.295 1.853.245-.035.5-.035c1.099 0 2.08.507 2.722 1.3a.7.7 0 0 1 .395-.042l.206.054c.274.062.398-.028.422-.23l.012-.202c.11-.84 1.375-.84 1.485 0l.012.202c.022.18.128.26.304.26q.067 0 .272-.074c.715-.176 1.25.725.693 1.269-.516.504-1.025.572-1.607.371L10 12.75c-.468.213-.87.264-1.035.263.072.447.035.84-.095 1.437l1.14.632a1.5 1.5 0 1 1-.972 1.75l-1.243-.69a3.5 3.5 0 0 1-4.725-5.161A7 7 0 0 1 3 10c0-.342.022-.712.086-1.089C2.47 8.251 1.98 7.189 2 6.125A4.125 4.125 0 0 1 6.125 2c1.03 0 1.957.35 2.787 1.085C9.378 3.027 9.621 3 10 3s.697.029 1.234.11C11.88 2.432 13.034 2 14 2M7.5 7.5a1 1 0 1 1 0 2 1 1 0 0 1 0-2m5 0a1 1 0 1 1 0 2 1 1 0 0 1 0-2m-7 4.5a1.5 1.5 0 1 0 0 3 1.5 1.5 0 0 0 0-3" clip-rule="evenodd"/></g><defs><clipPath id="a"><path fill="#fff" d="M0 0h20v20H0z"/></clipPath></defs></svg>
